X:1
T:Tuam, SM
T:Tuam, SM
T:William Mason (1829-1908)
T:Public Domain Courtesy of the Cyber Hymnal™
C:William Mason (1829-1908)
Z:Public Domain
Z:Courtesy of the Cyber Hymnal™
%%score ( 1 2 ) ( 3 4 )
L:1/8
Q:1/4=113
M:3/4
K:D
V:1 treble 
V:2 treble 
V:3 bass 
V:4 bass 
V:1
 [Fd]2 | ([Fd]2 [Ac]2) [GB]2 | ([GB]2 [FA]2) [EG]2 | [DF]4 [CE]2 | [DF]4 [DB]2 | [FA]4 [E^G]2 | %6
 [EA]4 [FA]2 | [DB]4 [Gc]2 | [Fd]4 [Ec]2 | [Ec]4 [DB]2 | [CA]4 [EG]2 | (F2 G2) [GB]2 | %12
 ([FA]2 [DF]2) [CE]2 | D4 |] %14
V:2
 x2 | x6 | x6 | x6 | x6 | x6 | x6 | x6 | x6 | x6 | x6 | D4 x2 | x6 | D4 |] %14
V:3
 [D,A,]2 | ([D,A,]2 [F,D]2) [G,D]2 | D4 [C,A,]2 | [D,A,]4 [A,,A,]2 | [D,A,]4 [B,,B,]2 | %5
 [E,C]4 [E,B,]2 | [A,,C]4 [D,D]2 | G,4 [E,A,]2 | [D,A,]4 A,2 | [E,A,]4 [E,^G,]2 | %10
 [A,,A,]4 [C,A,]2 | ([D,A,]2 [B,,B,]2) [G,,D]2 | (F,2 A,2) [A,,G,]2 | [D,F,]4 |] %14
V:4
 x2 | x6 | (G,2 A,2) x2 | x6 | x6 | x6 | x6 | (G,2 F,2) x2 | x4 (A,,C,) | x6 | x6 | x6 | A,,4 x2 | %13
 x4 |] %14

